X:1
T:Title
%%score { ( 1 3 ) | 2 }
L:1/8
Q:1/4=100
M:4/4
K:G
V:1 treble nm="Grand Piano"
V:3 treble 
V:2 bass 
V:1
 E2 G2 =F2 [B,D]2 | E2 G2 =F2 [B,D]2 | E2 G2 A2 c2 | B2 A2 G2 =F2 | E2 G2 =F2 [B,D]2 | %5
w: G.~F.~Root * * *|||||
 E2 G2 =F2 [B,D]2 | E2 G2 A2 [=Fd]2 | c2 B2 [Ec]4 | B2 c2 A2 B2 | [DG]2 [EA]2 F2 D2 | %10
w: |||||
 [DG]2 A2 B2 c2 | B2 [DG]2 A4 | B2 c2 A2 B2 | [DG]2 [EA]2 F2 D2 | [DG]2 A2 B2 [Ec]2 | %15
w: |||||
 [DB]2 [CA]2 [B,G]4 |] %16
w: |
V:2
 [C,G,C]2 [E,G,C]2 [D,G,B,]2 [G,,G,]2 | [C,G,C]2 [E,G,C]2 [D,G,B,]2 [G,,G,]2 | %2
 [C,G,C]2 [E,G,C]2 [=F,C]2 [D,^F,C]2 | [G,D]2 [D,F,C]2 [G,,G,]4 | %4
 [C,G,C]2 [E,G,C]2 [D,G,B,]2 [G,,G,]2 | [C,G,C]2 [E,G,C]2 [D,G,B,]2 [G,,G,]2 | %6
 [C,G,C]2 [E,G,C]2 [=F,C]2 [D,A,]2 | [G,E]2 [G,D]2 [C,G,]4 | [G,D]2 [G,E]2 [D,F,D]2 [D,F,D]2 | %9
 [B,,G,]2 [C,C]2 [D,A,D]2 [D,F,]2 | [B,,G,]2 [D,F,D]2 [G,D]2 [G,E]2 | [G,D]2 [B,,G,]2 [D,F,D]4 | %12
 [G,D]2 [G,E]2 [D,F,D]2 [D,F,D]2 | [B,,G,]2 [C,C]2 [D,A,D]2 [D,F,]2 | %14
 [B,,G,]2 [D,F,D]2 [G,D]2 [C,G,]2 | [D,G,]2 [D,F,]2 [G,,G,]4 |] %16
V:3
 x8 | x8 | x8 | z4 B,4 | x8 | x8 | x8 | x8 | x8 | x8 | x8 | x8 | x8 | x8 | x8 | x8 |] %16

